dist/assets/img/clients/7.svg

<svg width="173" height="65" viewBox="0 0 173 65" fill="none" xmlns="http://www.w3.org/2000/svg">
<g clip-path="url(#clip0)">
<path d="M37.5005 16.1196C31.8259 16.1196 26.5856 18.9453 23.4053 23.1769H23.2233L24.2298 17.6433H7.03271L-3.05176e-05 64.1905H17.8388L21.6374 39.3646C22.4298 34.5214 24.087 30.4067 29.7596 30.4067C32.6465 30.4067 34.8983 31.903 35.0692 34.8661C35.1738 36.7492 34.4634 40.014 34.0742 42.7092L30.7184 64.1902H48.5596L52.7081 37.7527C53.2244 34.3394 53.578 30.838 53.4502 28.7775C52.9173 19.6351 45.6917 16.1196 37.5005 16.1196ZM80.926 16.1584C69.3085 16.1584 53.3114 23.1509 54.5564 44.5177C55.2149 55.8163 62.4195 64.9965 78.995 64.9965C99.1707 64.9965 102.017 53.4485 103.003 50.1935H85.8833C85.0785 52.1465 82.9246 53.6172 79.0538 53.6172C73.4691 53.6172 71.5143 49.868 71.2323 44.6599H104.557C105.208 41.4049 105.137 39.0642 104.992 36.5604C104.142 21.9273 91.2808 16.1584 80.926 16.1584ZM88.0721 35.2206H72.2227C73.2861 30.338 76.2762 27.4928 81.0521 27.4928C85.5533 27.4928 87.9659 30.2299 88.1679 33.7386C88.1908 34.1813 88.1388 35.2206 88.0721 35.2206Z" fill="white"/>
<path d="M166.368 11.9231C168.438 11.9231 169.974 11.9407 171.16 12.1125L173 0.323064C169.838 0.142083 166.756 0.00341797 163.608 0.00341797C149.643 0.00341797 144.999 3.6468 142.999 17.6435H130.428C131.083 13.0864 132.448 11.9231 135.971 11.9231C138.034 11.9231 139.575 11.9407 140.749 12.1125L142.594 0.323064C139.428 0.142083 136.351 0.00341797 133.202 0.00341797C119.236 0.00341797 114.591 3.6468 112.601 17.6435H105.39L103.592 28.3852H110.983L105.659 64.1907H123.491L128.807 28.3852H141.388L136.071 64.1907H153.903L159.224 28.3852H168.231L169.938 17.6435H160.83C161.492 13.0864 162.861 11.9231 166.368 11.9231Z" fill="white"/>
</g>
<defs>
<clipPath id="clip0">
<rect width="173" height="65" fill="white"/>
</clipPath>
</defs>
</svg>

<svg width="173" height="65" fill="none" xmlns="http://www.w3.org/2000/svg"><g clip-path="url(#clip0)" fill="#fff"><path d="M37.5 16.12c-5.674 0-10.914 2.825-14.095 7.057h-.182l1.007-5.534H7.033L0 64.19h17.839l3.798-24.825c.793-4.844 2.45-8.958 8.123-8.958 2.887 0 5.138 1.496 5.31 4.46.104 1.882-.607 5.147-.996 7.842L30.718 64.19H48.56l4.148-26.437c.516-3.414.87-6.915.742-8.976-.533-9.142-7.758-12.657-15.95-12.657zm43.426.038c-11.618 0-27.615 6.993-26.37 28.36.659 11.298 7.864 20.478 24.439 20.478 20.176 0 23.022-11.547 24.008-14.802h-17.12c-.804 1.953-2.958 3.423-6.83 3.423-5.584 0-7.539-3.749-7.82-8.957h33.324c.651-3.255.58-5.596.435-8.1-.85-14.633-13.711-20.402-24.066-20.402zm7.146 19.063h-15.85c1.064-4.883 4.054-7.728 8.83-7.728 4.501 0 6.914 2.737 7.116 6.246.023.442-.03 1.482-.096 1.482z"/><path d="M166.368 11.923c2.07 0 3.606.018 4.792.19L173 .323c-3.162-.18-6.244-.32-9.392-.32-13.965 0-18.609 3.644-20.609 17.64h-12.571c.655-4.557 2.02-5.72 5.543-5.72 2.063 0 3.604.018 4.778.19l1.845-11.79c-3.166-.18-6.243-.32-9.392-.32-13.966 0-18.611 3.644-20.601 17.64h-7.211l-1.798 10.742h7.391l-5.324 35.806h17.832l5.316-35.806h12.581l-5.317 35.806h17.832l5.321-35.806h9.007l1.707-10.742h-9.108c.662-4.557 2.031-5.72 5.538-5.72z"/></g><defs><clipPath id="clip0"><path fill="#fff" d="M0 0h173v65H0z"/></clipPath></defs></svg>
